X:391
T:William Taylor's Table Top
R:hp 32
M:4/4
L:1/8
R:hornpipe
K:Amin
|:A2 A2 ABcA|BcBA G2 E2|e2 e2 dedc|BAGA BcdB|
A2 A2 ABcA|BcBA G2 E2|edcB AcBG|A2 A2 A4:|
|:ecAc e2 e2|dBGB d2 d2|cBAG A2 Ac|BAGA B2 B2|
ecGce2 e2|dAFAd2 d2|cBAG AcBG|A2 A2 A4:|

